run/templates/classic/set_symbol/all.svg

<?xml version="1.0" encoding="UTF-8" standalone="no"?>
<svg
   version="1.1"
   width="31.936001"
   height="13.465"
   viewBox="0 0 31.936001 13.465"
   id="svg4"
   xmlns="http://www.w3.org/2000/svg"
   xmlns:svg="http://www.w3.org/2000/svg">
  <defs>
    <!-- This is the gradient that will actually be used on
     the cards. The colors themselves will be provided by the
     template, but the x values, y values, and offsets will be
     used from the SVG. -->
    <linearGradient id="rarity" x1="0" y1="1" x2="1" y2="0">
      <stop offset="0" style="stop-color:rgb(192,55,38);stop-opacity:1" id="stop2" />
      <stop offset="0.125" style="stop-color:rgb(192,55,38);stop-opacity:1" id="stop4" />
      <stop offset="0.5" style="stop-color:rgb(241,142,30);stop-opacity:1" id="stop6" />
      <stop offset="0.875" style="stop-color:rgb(192,55,38);stop-opacity:1" id="stop8" />
      <stop offset="1" style="stop-color:rgb(192,55,38);stop-opacity:1" id="stop10" />
    </linearGradient>
    <!-- These gradients are here so that you can visualize
     what the set symbol would like like in that rarity. The
     only gradient that matters in the end is the "rarity"
     gradient. -->
    <linearGradient id="mythic" x1="0" y1="1" x2="1" y2="0">
      <stop offset="0" style="stop-color:rgb(192,55,38);stop-opacity:1"/>
      <stop offset="0.125" style="stop-color:rgb(192,55,38);stop-opacity:1"/>
      <stop offset="0.5" style="stop-color:rgb(241,142,30);stop-opacity:1"/>
      <stop offset="0.875" style="stop-color:rgb(192,55,38);stop-opacity:1"/>
      <stop offset="1" style="stop-color:rgb(192,55,38);stop-opacity:1"/>
    </linearGradient>
    <linearGradient id="rare" x1="0" y1="1" x2="1" y2="0">
      <stop offset="0" style="stop-color:rgb(146,116,67);stop-opacity:1"/>
      <stop offset="0.125" style="stop-color:rgb(146,116,67);stop-opacity:1"/>
      <stop offset="0.5" style="stop-color:rgb(211,178,108);stop-opacity:1"/>
      <stop offset="0.875" style="stop-color:rgb(146,116,67);stop-opacity:1"/>
      <stop offset="1" style="stop-color:rgb(146,116,67);stop-opacity:1"/>
    </linearGradient>
    <linearGradient id="special" x1="0" y1="1" x2="1" y2="0">
      <stop offset="0" style="stop-color:rgb(76, 56, 106);stop-opacity:1"/>
      <stop offset="0.125" style="stop-color:rgb(76, 56, 106);stop-opacity:1"/>
      <stop offset="0.5" style="stop-color:rgb(201, 173, 221);stop-opacity:1"/>
      <stop offset="0.875" style="stop-color:rgb(76, 56, 106);stop-opacity:1"/>
      <stop offset="1" style="stop-color:rgb(76, 56, 106);stop-opacity:1"/>
    </linearGradient>
    <linearGradient id="uncommon" x1="0" y1="1" x2="1" y2="0">
      <stop offset="0" style="stop-color:rgb(98,110,119);stop-opacity:1"/>
      <stop offset="0.125" style="stop-color:rgb(98,110,119);stop-opacity:1"/>
      <stop offset="0.5" style="stop-color:rgb(196,222,238);stop-opacity:1"/>
      <stop offset="0.875" style="stop-color:rgb(98,110,119);stop-opacity:1"/>
      <stop offset="1" style="stop-color:rgb(98,110,119);stop-opacity:1"/>
    </linearGradient>
    <linearGradient id="common" x1="0" y1="1" x2="1" y2="0">
      <stop offset="0" style="stop-color:rgb(0,0,0);stop-opacity:1"/>
    </linearGradient>
    <linearGradient
            id="rarity-outline" x1="0" y1="1" x2="0" y2="1">
      <stop offset="0" style="stop-color:rgb(0,0,0);stop-opacity:1"/>
    </linearGradient>
  </defs>
  <path fill="url(#rarity-outline" d="M 24.660843,5.8426539 25.118,7.109 C 21.673,4.926 18.4,6.074 18.4,6.074 18.056,4.695 18.459,2.801 18.459,2.801 21.96,1.137 27.3,3.204 27.3,3.204 26.017502,4.1094456 25.469418,4.4853391 24.660843,5.8426539 Z M 20.56,7.538 19.722,7.109 c 0.401,-0.344 0.862,-0.287 0.862,-0.287 l -0.023,0.716 z m -2.791,0.43 C 16.506,7.223 10.419,4.064 4.277,4.581 c 0,0 2.468,-0.862 4.536,-1.205 0,0 -0.458,-0.745 -2.986,-1.951 0,0 5.627,0.057 11.484,3.617 0,0 0,0.975 0.344,1.78 0.344,0.802 0.862,0.572 0.862,0.572 0,0 0.802,0.634 1.492,0.862 0,0 -0.977,0.46 -2.24,-0.287 z m 8.383,-0.574 c 0,0 -0.195,-0.608 -0.596,-1.47 0,0 1.113,-1.229 2.663,-2.031 l -2.067,3.5 z m 4.389,-7.393 c -0.769,0 -1.393,0.623 -1.393,1.394 0,0.384 0.156,0.73 0.408,0.984 L 29.281,2.845 28.434,2.811 C 28.039,2.659 27.581,2.479 27.581,2.479 27.349,2.39 21.886,0.313 18.126,2.101 L 17.78,2.266 17.7,2.639 C 17.689,2.688 17.548,3.382 17.502,4.256 13.015,1.585 8.596,0.893 6.744,0.709 4.76,0.513 2.785,0.705 2.785,0.705 5.427,1.94 7.046,2.956 7.046,2.956 7.046,2.956 4.622,3.287 0,5.555 L 4.343,5.352 c 6.472,-0.545 12.768,3.125 13.034,3.281 1.073,0.636 2.141,0.655 2.751,0.401 1.484,-0.61 1.214,-2.451 1.214,-2.451 0.988,0.102 2.158,0.416 3.362,1.178 l 0.846,0.551 -2.584,4.464 0.976,0.689 6.028,-9.819 -0.114,-0.458 0.277,-0.471 c 0.129,0.04 0.266,0.07 0.41,0.07 0.771,0 1.393,-0.625 1.393,-1.393 C 31.936,0.623 31.313,0 30.543,0 Z"/>
  <path d="M 30.542969 0 L 30.541016 0.001953125 C 29.772016 0.001953125 29.148438 0.62353125 29.148438 1.3945312 C 29.148438 1.7785313 29.304641 2.1249063 29.556641 2.3789062 L 29.28125 2.8457031 L 28.433594 2.8105469 C 28.038594 2.6585469 27.580078 2.4785156 27.580078 2.4785156 C 27.348078 2.3895156 21.886953 0.3135625 18.126953 2.1015625 L 17.779297 2.265625 L 17.699219 2.6386719 C 17.688219 2.6876719 17.547953 3.3818594 17.501953 4.2558594 C 13.014953 1.5848594 8.5961406 0.89298438 6.7441406 0.70898438 C 4.7601406 0.51298438 2.7851562 0.70507812 2.7851562 0.70507812 C 5.4271562 1.9400781 7.046875 2.9550781 7.046875 2.9550781 C 7.046875 2.9550781 4.622 3.2866875 0 5.5546875 L 4.34375 5.3515625 C 10.81575 4.8065625 17.110953 8.4768125 17.376953 8.6328125 C 18.449953 9.2688125 19.518906 9.2872031 20.128906 9.0332031 C 21.612906 8.4232031 21.341797 6.5820312 21.341797 6.5820312 C 22.329797 6.6840313 23.499125 6.9997187 24.703125 7.7617188 L 25.550781 8.3125 L 22.966797 12.775391 L 23.941406 13.464844 L 29.970703 3.6464844 L 29.855469 3.1875 L 30.132812 2.7167969 C 30.261813 2.7567969 30.398969 2.7871094 30.542969 2.7871094 C 31.313969 2.7871094 31.935547 2.1625312 31.935547 1.3945312 C 31.935547 0.62353125 31.312969 1.4802974e-16 30.542969 0 z M 28.21875 3.8925781 L 26.152344 7.3925781 C 26.151527 7.3900344 25.9568 6.78402 25.556641 5.9238281 C 25.556641 5.9238281 26.66875 4.6945781 28.21875 3.8925781 z " />
  <path fill="url(#rarity)" d="M 24.660843,5.8426539 25.118,7.109 C 21.673,4.926 18.4,6.074 18.4,6.074 18.056,4.695 18.459,2.801 18.459,2.801 21.96,1.137 27.3,3.204 27.3,3.204 26.017502,4.1094456 25.469418,4.4853391 24.660843,5.8426539 Z M 20.56,7.538 19.722,7.109 c 0.401,-0.344 0.862,-0.287 0.862,-0.287 l -0.023,0.716 z m -2.791,0.43 C 16.506,7.223 10.419,4.064 4.277,4.581 c 0,0 2.468,-0.862 4.536,-1.205 0,0 -0.458,-0.745 -2.986,-1.951 0,0 5.627,0.057 11.484,3.617 0,0 0,0.975 0.344,1.78 0.344,0.802 0.862,0.572 0.862,0.572 0,0 0.802,0.634 1.492,0.862 0,0 -0.977,0.46 -2.24,-0.287 z"/>
  <path fill="#FFFFFF" d="M 20.56,7.538 19.722,7.109 c 0.401,-0.344 0.862,-0.287 0.862,-0.287 l -0.023,0.716 z"/>
</svg>

<?xml version="1.0" encoding="UTF-8" standalone="no"?>
<!-- Generated by IcoMoon.io -->

<svg
   version="1.1"
   width="31.936001"
   height="13.465"
   viewBox="0 0 31.936001 13.465"
   id="svg6"
   sodipodi:docname="all.svg"
   inkscape:version="1.1.1 (3bf5ae0d25, 2021-09-20)"
   xmlns:inkscape="http://www.inkscape.org/namespaces/inkscape"
   xmlns:sodipodi="http://sodipodi.sourceforge.net/DTD/sodipodi-0.dtd"
   xmlns="http://www.w3.org/2000/svg"
   xmlns:svg="http://www.w3.org/2000/svg">
  <defs
     id="defs10" />
  <sodipodi:namedview
     id="namedview8"
     pagecolor="#ffffff"
     bordercolor="#666666"
     borderopacity="1.0"
     inkscape:pageshadow="2"
     inkscape:pageopacity="0.0"
     inkscape:pagecheckerboard="0"
     showgrid="false"
     inkscape:zoom="25.75"
     inkscape:cx="15.941748"
     inkscape:cy="6.6990291"
     inkscape:window-width="1920"
     inkscape:window-height="1009"
     inkscape:window-x="-8"
     inkscape:window-y="-8"
     inkscape:window-maximized="1"
     inkscape:current-layer="svg6" />
  <title
     id="title2">all</title>
  <path
     fill="#000000"
     d="M 25.003,5.272 24.314,5.213 25.118,7.109 C 21.673,4.926 18.4,6.074 18.4,6.074 18.056,4.695 18.459,2.801 18.459,2.801 21.96,1.137 27.3,3.204 27.3,3.204 25.577,4.35 25.003,5.271 25.003,5.271 Z M 20.56,7.538 19.722,7.109 c 0.401,-0.344 0.862,-0.287 0.862,-0.287 l -0.023,0.716 z m -2.791,0.43 C 16.506,7.223 10.419,4.064 4.277,4.581 c 0,0 2.468,-0.862 4.536,-1.205 0,0 -0.458,-0.745 -2.986,-1.951 0,0 5.627,0.057 11.484,3.617 0,0 0,0.975 0.344,1.78 0.344,0.802 0.862,0.572 0.862,0.572 0,0 0.802,0.634 1.492,0.862 0,0 -0.977,0.46 -2.24,-0.287 z m 8.383,-0.574 c 0,0 -0.195,-0.608 -0.596,-1.47 0,0 1.113,-1.229 2.663,-2.031 l -2.067,3.5 z m 4.389,-7.393 c -0.769,0 -1.393,0.623 -1.393,1.394 0,0.384 0.156,0.73 0.408,0.984 L 29.281,2.845 28.434,2.811 C 28.039,2.659 27.581,2.479 27.581,2.479 27.349,2.39 21.886,0.313 18.126,2.101 L 17.78,2.266 17.7,2.639 C 17.689,2.688 17.548,3.382 17.502,4.256 13.015,1.585 8.596,0.893 6.744,0.709 4.76,0.513 2.785,0.705 2.785,0.705 5.427,1.94 7.046,2.956 7.046,2.956 7.046,2.956 4.622,3.287 0,5.555 L 4.343,5.352 c 6.472,-0.545 12.768,3.125 13.034,3.281 1.073,0.636 2.141,0.655 2.751,0.401 1.484,-0.61 1.214,-2.451 1.214,-2.451 0.988,0.102 2.158,0.416 3.362,1.178 l 0.846,0.551 -2.584,4.464 0.976,0.689 6.028,-9.819 -0.114,-0.458 0.277,-0.471 c 0.129,0.04 0.266,0.07 0.41,0.07 0.771,0 1.393,-0.625 1.393,-1.393 C 31.936,0.623 31.313,0 30.543,0 Z"
     id="path4" />
</svg>
